X: 3848
T: Black Mountain, The
R: mazurka
M: 3/4
K: Cmajor
|:E>F|G>G G>c G>c|G2 E2 E>G|B>B B>A G>F|A2 G2 E>F|
G>G G>c G>c|G2- G>E F>G|B>B B>A G>F|E2 E2:|
|:F>G|A2 A>G A>G|F<E E2 E>F|G>G G>F E>D|F<E E2 F>G|
A>G A>G A>G|F<E E2 E>F|G>G G>F E>D|C2 C2:|

